usr/share/icons/big-icons/scalable/apps/system-restart.svg

<?xml version="1.0" encoding="UTF-8" standalone="no"?>
<svg
   width="24"
   height="24"
   fill="none"
   version="1.1"
   id="svg4"
   sodipodi:docname="xfsm-reboot.svg"
   inkscape:version="1.3 (0e150ed6c4, 2023-07-21)"
   xmlns:inkscape="http://www.inkscape.org/namespaces/inkscape"
   xmlns:sodipodi="http://sodipodi.sourceforge.net/DTD/sodipodi-0.dtd"
   xmlns:xlink="http://www.w3.org/1999/xlink"
   xmlns="http://www.w3.org/2000/svg"
   xmlns:svg="http://www.w3.org/2000/svg">
  <sodipodi:namedview
     id="namedview4"
     pagecolor="#ffffff"
     bordercolor="#000000"
     borderopacity="0.25"
     inkscape:showpageshadow="2"
     inkscape:pageopacity="0.0"
     inkscape:pagecheckerboard="0"
     inkscape:deskcolor="#d1d1d1"
     inkscape:zoom="16.985294"
     inkscape:cx="15.18961"
     inkscape:cy="-2.2077922"
     inkscape:window-width="3440"
     inkscape:window-height="1358"
     inkscape:window-x="2560"
     inkscape:window-y="0"
     inkscape:window-maximized="1"
     inkscape:current-layer="svg4" />
  <path
     d="m 12,0.9999999 c -9.9999999,0 -10.9999999,5 -10.9999999,11.0000001 0,8 3,11 10.9999999,11 8,0 11,-3 11,-11 C 23,5.9999999 22,0.9999999 12,0.9999999 Z"
     style="font-variation-settings:normal;display:inline;vector-effect:none;fill:url(#b);fill-opacity:1;stroke-width:1.11627;stroke-linecap:butt;stroke-linejoin:miter;stroke-miterlimit:4;stroke-dasharray:none;stroke-dashoffset:0;stroke-opacity:1;-inkscape-stroke:none;stop-color:#000000"
     id="path2-5" />
  <path
     id="path1"
     style="fill:url(#radialGradient7);stroke-width:0.999996"
     d="M 11.999999,5.4999998 A 6.4988892,6.4988892 0 0 0 8.7073806,6.405957 l 0.3945297,0.3969651 a 5.957315,5.957315 0 0 1 2.8980887,-0.7598352 5.957315,5.957315 0 0 1 5.956913,5.9569121 5.957315,5.957315 0 0 1 -0.506557,2.384226 l -2.384227,-2.384226 -0.384787,0.382354 2.912701,2.9127 A 6.4988892,6.4988892 0 0 0 18.5,11.999999 6.4988892,6.4988892 0 0 0 11.999999,5.4999998 Z M 6.405957,8.7049453 A 6.4988892,6.4988892 0 0 0 5.4999998,11.999999 6.4988892,6.4988892 0 0 0 11.999999,18.5 6.4988892,6.4988892 0 0 0 15.295053,17.594042 l -0.396964,-0.396965 a 5.957315,5.957315 0 0 1 -2.89809,0.759835 5.957315,5.957315 0 0 1 -5.9569121,-5.956913 5.957315,5.957315 0 0 1 0.5089923,-2.3866607 l 2.3842261,2.3866607 0.382353,-0.382353 z" />
  <defs
     id="defs4">
    <radialGradient
       id="a"
       cx="0"
       cy="0"
       r="1"
       gradientTransform="matrix(0,21.999688,-21.999688,0,11.999966,1.0001864)"
       gradientUnits="userSpaceOnUse">
      <stop
         stop-color="#78BDFF"
         id="stop3" />
      <stop
         offset="1"
         stop-color="#1A5084"
         id="stop4" />
    </radialGradient>
    <linearGradient
       xlink:href="#a-6"
       id="b"
       x1="57.159"
       x2="58.181999"
       y1="115.199"
       y2="-26.193001"
       gradientTransform="matrix(0.24444,0,0,0.24444,-0.22199995,-0.2220002)"
       gradientUnits="userSpaceOnUse" />
    <linearGradient
       id="a-6">
      <stop
         offset="0"
         style="stop-color:#d9d9d9;stop-opacity:1"
         id="stop1" />
      <stop
         offset="1"
         style="stop-color:#fff;stop-opacity:1"
         id="stop2-7" />
    </linearGradient>
    <radialGradient
       inkscape:collect="always"
       xlink:href="#a"
       id="radialGradient7"
       gradientUnits="userSpaceOnUse"
       gradientTransform="matrix(0,27.431607,-27.431607,0,11.999957,-1.7157661)"
       cx="0"
       cy="0"
       r="1" />
  </defs>
</svg>

<svg width="24" height="24" viewBox="0 0 24 24" fill="none" xmlns="http://www.w3.org/2000/svg">
<defs>
<style id="current-color-scheme" type="text/css">.ColorScheme-Text { color:#ffffff; }</style>
</defs>
<path class="ColorScheme-Text" d="M12 1C2 1 1 6 1 12C1 20 4 23 12 23C20 23 23 20 23 12C23 6 22 1 12 1Z" fill="currentColor"/>
<path d="M12 5.5C10.8413 5.50307 9.70453 5.81585 8.70738 6.40596L9.10191 6.80292C9.98744 6.3069 10.985 6.04535 12 6.04309C13.5798 6.04319 15.0949 6.67083 16.2121 7.78794C17.3292 8.90506 17.9568 10.4202 17.9569 12C17.9542 12.8212 17.7817 13.6329 17.4504 14.3842L15.0661 12L14.6813 12.3824L17.594 15.2951C18.1846 14.2972 18.4974 13.1595 18.5 12C18.5001 11.1464 18.3321 10.3011 18.0055 9.51238C17.6789 8.7237 17.2001 8.00709 16.5965 7.40348C15.9929 6.79987 15.2763 6.32109 14.4876 5.99449C13.6989 5.66788 12.8536 5.49985 12 5.5ZM6.40596 8.70495C5.81543 9.70281 5.50263 10.8405 5.5 12C5.49985 12.8536 5.66788 13.6989 5.99449 14.4876C6.32109 15.2763 6.79987 15.9929 7.40348 16.5965C8.00709 17.2001 8.7237 17.6789 9.51238 18.0055C10.3011 18.3321 11.1464 18.5001 12 18.5C13.1595 18.4974 14.2972 18.1846 15.2951 17.594L14.8981 17.1971C14.0126 17.6931 13.015 17.9547 12 17.9569C10.4202 17.9568 8.90506 17.3292 7.78794 16.2121C6.67083 15.0949 6.04319 13.5798 6.04309 12C6.04624 11.1778 6.21954 10.3652 6.55208 9.61334L8.93631 12L9.31866 11.6176L6.40596 8.70495Z" fill="url(#paint0_radial_104_2)"/>
<defs>
<radialGradient id="paint0_radial_104_2" cx="0" cy="0" r="1" gradientUnits="userSpaceOnUse" gradientTransform="translate(12 -1.71577) rotate(90) scale(27.4316)">
<stop stop-color="#78BDFF"/>
<stop offset="1" stop-color="#1A5084"/>
</radialGradient>
</defs>
</svg>
